!!!!SEGMENT: pl-kc--40102-iii-1-saf--001-028_zielenski-mikolaj--offertoria-totius-anni-in-festo-s-mariae-magdaleane-filiae-regum.krn
!!!cenid: 16xx:1506
!!!COM: Zieleński, Mikołaj
!!!COM-rismid: pe30013481
!!!CDT:
!!!CNT: Polish
!!!GTL: Offertoria totius anni
!!!OTL: In festo S. Mariae Magdaleane/Filiae Regum
!!!OMV: 028
!!!PDT: 1611
!!!AGN:
!!!SMS-siglum: PL-Kc
!!!SMS-shelfmark: 40102 III/1 Saf.
!!!SMS-shelfwork: 001-028 G
!!!SMS-variant:
!!!SMS-altvar:
!!!NIFC-rismid: 990069886
!!!URL-scan: https://cyfrowe.mnk.pl/dlibra/publication/24235/edition/23926/content?ref=desc
!!!ONB-nifc: UWAGA: str. 26-27. Uwaga: W xml metrum 2/1 do źródłowego C| i odpowiednio 3/1 do 3/2
!!!key: g:dor
**kern	**kern	**kern	**kern
*group1	*group1	*group1	*group1
*Iempty	*Iempty	*Iempty	*Iempty
*I""Organo	*I""Organo	*I""Organo	*I""Organo
*I''org	*I''org	*I''org	*I''org
*part4	*part3	*part2	*part1
*staff4	*staff3	*staff2	*staff1
*clefF4	*clefC3	*clefC3	*clefC1
*k[b-]	*k[b-]	*k[b-]	*k[b-]
*g:dor	*g:dor	*g:dor	*g:dor
*M2/1	*M2/1	*M2/1	*M2/1
*met(C|)	*met(C|)	*met(C|)	*met(C|)
=1	=1	=1	=1
!!LO:TX:t=P:problem:zamiast # jest x:global
!	!	!LO:TX:a:t=Eili - Regum.	!LO:TX:a:t=In feſto S. Mariae Nagdalenae. A 7,
00r	00r	2r	2r
.	.	2.g\	2.dd\
.	.	4g\	4dd\
.	.	2G/	2dd\
=2-	=2-	=2-	=2-
.	.	1c	1ee
.	.	2G/	2dd\
.	.	4.e-X\	4.b-\
.	.	8e-\	8b-\
=3	=3	=3	=3
!	!	!LO:SIC:v:s=2e-\	!
00r	00r	2e\	2b-\
.	.	2c\	2cc\
.	.	8B-/	1ee
.	.	8A/	.
.	.	8G/	.
.	.	8A/	.
.	.	8B-/	.
.	.	8c/	.
.	.	8d\	.
.	.	8e\	.
=4-	=4-	=4-	=4-
.	.	4f\	4cc\
.	.	2f\	2cc\
.	.	4c/	4cc\
.	.	2d\	2a\
.	.	2G/	2b-\
=5	=5	=5	=5
1r	1r	1d	1a
2r	2r	1G	1g
2.GG/	2.d\	.	.
=6-	=6-	=6-	=6-
.	.	0r	0r
4GG/	4d\	.	.
2GG/	2d\	.	.
1C	1e-X	.	.
=7	=7	=7	=7
2GG/	2d\	00r	00r
4.E\	4.g\	.	.
8E\	8g\	.	.
2E\	2g\	.	.
2C/	2g\	.	.
=8-	=8-	=8-	=8-
4.D/	1f	.	.
8E\	.	.	.
2F\	.	.	.
4BB-/	4f\	.	.
2BB-/	2f\	.	.
4FF/	4a\	.	.
=9	=9	=9	=9
2C/	4a\	0r	0r
.	4a\	.	.
2GG/	4g\	.	.
.	2g\	.	.
1D	.	.	.
.	8f#X\	.	.
.	8e\	.	.
.	2f#\	.	.
=10-	=10-	=10-	=10-
1GG	1g	2r	2r
.	.	2.G/	2.dd\
1r	1r	.	.
.	.	4G/	4dd\
!	!	!	!LO:TX:t=P:problem:kreska taktowa między nuta a kropką
.	.	2g\	2.dd\
=11	=11	=11	=11
1r	1r	1e-X	.
.	.	.	8cc#X\
.	.	.	8b-\
.	.	.	2cc#\
2r	2r	2d\	2dd\
2.D/	2.a\	2.d\	2.ff\
=12-	=12-	=12-	=12-
.	.	.	.
4D/	4a\	4d\	4ff\
2DD/	2a\	2d\	2ff\
2.AA/	2a\	4A/	1ee
!	!	!LO:N:acc=#	!
.	.	4Bn/	.
.	2a\	4c/	.
!LO:N:acc=#	!	!	!
4BBn/	.	4d\	.
=13	=13	=13	=13
2C/	2r	4e\	2ee\
.	.	4f\	.
1GG	1g	4g\	1dd
.	.	4G/	.
.	.	4B-/	.
.	.	4A/	.
2GG/	2g\	4B-/	2dd\
.	.	4c/	.
=14-	=14-	=14-	=14-
2BB-/	2d\	2d\	2dd\
2FF/	2f\	2d\	2dd\
4GG/	1d	2.d\	1b-
4AA/	.	.	.
4BB-/	.	.	.
4GG/	.	4e\	.
=15	=15	=15	=15
2D/	2d\	2f\	2a\
1BB-	4f\	2.d\	1dd
.	4e\	.	.
.	4d\	.	.
.	4c/	4d\	.
2GG/	4B-/	4g\	2dd\
.	4A/	4f\	.
=16-	=16-	=16-	=16-
4C/	2G/	4e\	2.cc\
4BB-/	.	4d\	.
4AA/	2.c/	2e\	.
4GG/	.	.	4b-\
2FF/	.	1f	2a\
.	4A/	.	.
!	!LO:TX:t=P:problem:kreska taktowa między nuta a kropką	!	!LO:TX:t=P:problem:kreska taktowa między nuta a kropką
4EE/	[y2a\	.	2.dd\
4DD/	.	.	.
=17	=17	=17	=17
!	!LO:N:xstem:cue	!	!
2AA/	4a\]	1e	.
.	4g\	.	8cc#X\
.	.	.	8b-\
2AA/	2e\	.	2cc#\
1DD	1f#X	1a	1dd
=18-	=18-	=18-	=18-
*M3/1	*M3/1	*M3/1	*M3/1
1%6r	1%6r	1d	1a
.	.	1d	1a
.	.	1g	1b-
=19-	=19-	=19-	=19-
.	.	1.f	1.ccny
.	.	2f\	2cc\
.	.	1B-	1dd
=20	=20	=20	=20
1%6r	1%6r	1e	1b-
.	.	1e	1b-
.	.	1c	1cc
=21-	=21-	=21-	=21-
.	.	1.d	1a
.	.	.	1a
.	.	2c/	.
.	.	2B-/	1dd
.	.	2A/	.
=22	=22	=22	=22
!LO:SIC:v:t=custos GG	!LO:SIC:v:t=custos d	!	!
1%6r	1%6r	0G	2dd\
.	.	.	2cc\
.	.	.	2b-\
.	.	.	2a\
.	.	1c	1g
=23-	=23-	=23-	=23-
.	.	1.A	1.cc
.	.	2G/	2b-\
!	!	!LO:SIC:v:t=custos B-	!
.	.	1F	2a\
!	!	!	!LO:SIC:v:t=custos f
.	.	.	2g\
!!LO:PB:g=original
=24	=24	=24	=24
1%6r	1%6r	1.B-	2f/
.	.	.	2d/
.	.	.	1.dd
.	.	2A/	.
.	.	1G	.
.	.	.	2cc\
=25-	=25-	=25-	=25-
.	.	1G	1b-
.	.	0d	0a
=26-	=26-	=26-	=26-
!	!	!	!LO:N:acc=#
1%3r	1%3r	0.G	0.bn
=27-	=27-	=27-	=27-
1GG	1d	1%3r	1%3r
1GG	1d	.	.
1C	1e	.	.
=28	=28	=28	=28
1.BB-	1.f	1%6r	1%6r
2BB-/	2f\	.	.
1BB-	1f	.	.
=29-	=29-	=29-	=29-
1GG	1g	.	.
1AA	1e	.	.
1AA	1e	.	.
=30-	=30-	=30-	=30-
0.DD	0f#X	1%6r	1%6r
.	1f#	.	.
=31-	=31-	=31-	=31-
0GG	1.g	.	.
.	2fny\	.	.
1GG	2e\	.	.
.	2d\	.	.
=32	=32	=32	=32
1.C	0e	1%6r	1%6r
2BB-/	.	.	.
2AA/	1e	.	.
2GG/	.	.	.
=33-	=33-	=33-	=33-
0FF	1.a	.	.
.	2g\	.	.
1FF	2f\	.	.
.	2e\	.	.
=34-	=34-	=34-	=34-
*col	*col	*	*
1BB-	1d	1%6r	1%6r
0BB-	0f	.	.
=35-	=35-	=35-	=35-
1AA	1f	.	.
0GG	0g	.	.
*Xcol	*Xcol	*	*
=36	=36	=36	=36
0.FF	0.c	1%3r	1%3r
=37-	=37-	=37-	=37-
1FF	1f	1A	1cc
1FF	1f	1A	1cc
1DD	1f	1A	1dd
=38-	=38-	=38-	=38-
1.AA	1.e	1.A	1.ee
2AA/	2e\	2A/	2ee\
1DD	1d	1A	1ff
=39-	=39-	=39-	=39-
1BB-	1f	1F	1dd
1BB-	1f	1F	1dd
1GG	1g	1B-	1ee
=40	=40	=40	=40
*M2/1	*M2/1	*M2/1	*M2/1
*met(C|)	*met(C|)	*met(C|)	*met(C|)
1FF	1a	4A/	1ff
.	.	4G/	.
.	.	4A/	.
.	.	4B-/	.
2C/	2g\	2c/	2ee\
2AA/	4a\	2f\	2ff\
.	4g\	.	.
=41-	=41-	=41-	=41-
2.BB-/	4f\	1f	2.dd\
.	4e\	.	.
.	2d\	.	.
4AA/	.	.	4cc\
2GG/	2.g\	2B-/	4b-\
.	.	.	4a\
2GG/	.	2G/	2b-\
.	4f\	.	.
=42	=42	=42	=42
2.E-X\	2e-X\	2G/	2g/
.	2B-/	2G/	2.ee-X\
4D/	.	.	.
*	*lig	*	*
2C/	1e-	1c	.
.	.	.	4dd\
2C/	.	.	2.cc\
=43-	=43-	=43-	=43-
1GG	1d	2.g\	.
!	!	!	!LO:N:acc=#
.	.	.	8bn\
.	.	.	8a\
.	.	.	2b\
.	.	4f\	.
*	*Xlig	*	*
2C/	2c/	2e\	2cc\
2FF/	2f\	4a\	2cc\
.	.	4g\	.
=44	=44	=44	=44
2.BB-/	2f\	4f\	2.dd\
.	.	4e\	.
.	2B-/	2d\	.
4AA/	.	.	4cc\
!	!	!	!LO:N:acc=#
2GG/	1d	2d\	2bn\
2GG/	.	4g\	2b\
.	.	4f\	.
=45-	=45-	=45-	=45-
2.AA/	1.c	4e\	2.cc\
.	.	4d\	.
.	.	2c/	.
4GG/	.	.	4b-y\
2FF/	.	2f\	2a\
2GG/	2B-/	2d\	2b-\
=46	=46	=46	=46
2.DD/	1d	2.d\	4a\
.	.	.	4d/
.	.	.	2dd\
4DD/	.	4d\	.
!	!	!	!LO:N:acc=#
2GG/	2d\	2G/	2bn\
2r	2r	4G/	4dd\
.	.	4c/	4cc\
=47-	=47-	=47-	=47-
0r	0r	2.B-/	8dd\
.	.	.	8cc\
.	.	.	8b-\
.	.	.	8cc\
.	.	.	4dd\
.	.	4B-/	4dd\
.	.	4f\	4cc\
.	.	4g\	4b-\
!	!	!LO:TX:t=P:problem:kreska taktowa między nuta a kropką	!
.	.	[y2f\	8cc\
.	.	.	8b-\
.	.	.	8a\
.	.	.	8b-\
=48	=48	=48	=48
!LO:SIC:v:t=custos GG	!LO:SIC:v:t=custos d	!LO:N:xstem:cue	!
00r	00r	4f\]	4cc\
.	.	4d\	4dd\
.	.	4e-X\	4b-\
.	.	4c/	4cc\
.	.	2.d\	8a\
.	.	.	8g/
.	.	.	8f/
.	.	.	8g/
.	.	.	4a\
.	.	4B-/	4b-\
=49-	=49-	=49-	=49-
!	!	!	!
.	.	2.c/	2g/
.	.	.	2.cc\
.	.	8B-/	.
.	.	8A/	.
.	.	2d\	.
.	.	.	8b-\
.	.	.	8a\
!	!	!LO:SIC:v:t=custos d	!
.	.	2G/	4b-\
.	.	.	8a\
!	!	!	!LO:SIC:v:t=custos cc
.	.	.	8g\
!!LO:LB:g=original
=50	=50	=50	=50
1r	1r	1d	1cc
2r	2r	1G	1g
4GG/	4d\	.	.
4C/	8e\L	.	.
.	8f\J	.	.
=51-	=51-	=51-	=51-
2.BB-/	8f\	0r	0r
.	8e\	.	.
.	8d\	.	.
.	8e\	.	.
.	4f\	.	.
4BB-/	4d\	.	.
4F\	4c\	.	.
4FF/	4f\	.	.
[>2C/	8e\	.	.
.	8d\	.	.
.	8c\	.	.
.	8d\	.	.
=52	=52	=52	=52
2C/]	8e\	00r	00r
.	8d\	.	.
.	8e\	.	.
.	8c\	.	.
2AA/	2f\	.	.
2.BB-/	2d\	.	.
.	2.g\	.	.
8AA/	.	.	.
8GG/	.	.	.
=53-	=53-	=53-	=53-
2AA/	.	.	.
.	8f\	.	.
.	8e\	.	.
2DD/	4f\	.	.
.	8e\	.	.
.	8d\	.	.
1AA	1e	.	.
=54	=54	=54	=54
2DD/	2d\	2r	2r
2r	2r	4d\	4a\
.	.	4G/	4b-\
0r	0r	2c/	8g/
.	.	.	8f/
.	.	.	8e/
.	.	.	8f/
.	.	4c/	8g/
.	.	.	8f/
.	.	4c/	8g/
.	.	.	8a\
=55-	=55-	=55-	=55-
.	.	8G/	1b-
.	.	8A/	.
.	.	8B-/	.
.	.	8A/	.
.	.	8G/	.
.	.	8A/	.
.	.	8B-/	.
.	.	8c\	.
2r	2r	2d\	2a\
4D\	4f#X\	2r	2r
!LO:N:acc=#	!	!	!
4BBn/	4g\	.	.
=56	=56	=56	=56
2C/	8e\	0r	0r
.	8d\	.	.
.	8c\	.	.
.	8d\	.	.
4C/	8e\	.	.
.	8d\	.	.
4C/	8e\	.	.
.	8f\	.	.
8GG/	1g	.	.
8AA/	.	.	.
8BB-/	.	.	.
8AA/	.	.	.
8GG/	.	.	.
8AA/	.	.	.
8BB-/	.	.	.
8C/	.	.	.
=57-	=57-	=57-	=57-
!LO:TX:t=P:problem:za mało nut w takcie	!	!	!
2D/	2f#X\	2r	2r
4D/	4a\	4f\	4dd\
4C/	4a\	4c/	4ee\
!	!	!	!LO:TX:t=P:problem:za mało nut w takcie
1ryy	2.d\	2.f\	8ff\
.	.	.	8ee\
.	.	.	8dd\
.	.	.	8ee\
.	.	.	8ff\
.	.	.	8ee\
.	4e\	4g\	8dd\
.	.	.	8ryy
=58	=58	=58	=58
2F\	2f\	2a\	2cc\
4F\	2f\	2A/	4cc\
4BB-/	.	.	4dd\
1GG	2B-/	2d\	8b-\
.	.	.	8a\
.	.	.	8g\
.	.	.	8a\
.	[<2d\	2B-/	4b-\
.	.	.	8a\
.	.	.	8g\
=59-	=59-	=59-	=59-
2D/	2d\]	1A	2a\
4D/	2f#X\	.	2.dd\
4C/	.	.	.
4BB-/	2.g\	1d	.
4AA/	.	.	4cc\
2GG/	.	.	4b-\
.	4fny\	.	4a\
=60	=60	=60	=60
2.C/	4e\	2G/	2g/
.	4d\	.	.
.	1e	2G/	2.cc\
4BB-/	.	.	.
4AA/	.	1c	.
4GG/	.	.	4b-\
2FF/	2A/	.	4a\
.	.	.	4g/
=61-	=61-	=61-	=61-
2.BB-/	2B-/	1F	4f/
.	.	.	4d/
.	2B-/	.	2.dd\
4AA/	.	.	.
1GG	2d\	1B-	.
.	.	.	4cc\
.	2d\	.	4b-\
.	.	.	8a\
.	.	.	8g\
=62	=62	=62	=62
1D	2d\	2A/	4a\
.	.	.	4d/
.	2d\	2d\	2b-\
1DD	2d\	1d	1a
.	2d\	.	.
=63-	=63-	=63-	=63-
!	!	!	!LO:N:acc=#
2GG/	2d\	1G	2bn\
1C	1e-X	.	4cc\
.	.	.	4dd\
.	.	2.g\	4ee-X\
!	!	!	!LO:TX:t=P:problem:przepełniona miara taktu
!	!	!	!LO:N:vis=2
.	.	.	4cc\
!LO:N:acc=#	!	!	!
2BBn/	2d\	.	2dd\
.	.	4f\	.
=64	=64	=64	=64
0C	2g\	4e-X\	2g\
.	.	4d\	.
!	!	!	!LO:SIC:v:s=2.ee-\
.	2.g\	1c	2.ee\
.	4f\	.	4dd\
.	4e-X\	2c/	4cc\
!	!	!	!LO:N:acc=#
.	4d\	.	4bn\
=65-	=65-	=65-	=65-
*	*lig	*	*
0CC	1e-X	1c	4cc\
.	.	.	4g/
.	.	.	4cc\
.	.	.	4dd\
.	1d	1g	1ee-X
*	*Xlig	*	*
=66-	=66-	=66-	=66-
0GGl	0Gl	0gl	0ddl
==	==	==	==
*-	*-	*-	*-
!!!system-decoration: (s1,s2,s3,s4)
!!!RDF**kern: < = below
!!!RDF**kern: > = above
!!!RDF**kern: l = terminal long
!!!AIN: 4 empty
!!!ENC: Anastazja Marusiak
!!!END: 2021-12-13
!!!ENC: Marta Chmielewska
!!!END: 2021-12-22
